icon_installer/data/icons/scalable/actions/show-alarm-symbolic.svg

<?xml version="1.0" encoding="UTF-8"?>
<svg height="16px" viewBox="0 0 16 16" width="16px" xmlns="http://www.w3.org/2000/svg">
    <g fill="#222222">
        <path d="m 7.5 3 c -3.578125 0 -6.5 2.921875 -6.5 6.5 c 0 1.6875 0.65625 3.222656 1.71875 4.382812 l -0.417969 0.398438 c -0.261719 0.25 -0.367187 0.621094 -0.28125 0.96875 c 0.085938 0.351562 0.355469 0.628906 0.703125 0.722656 c 0.347656 0.097656 0.71875 0 0.976563 -0.253906 l 0.589843 -0.578125 c 0.949219 0.542969 2.042969 0.859375 3.210938 0.859375 c 1.183594 0 2.296875 -0.324219 3.253906 -0.886719 l 0.507813 0.558594 c 0.234375 0.277344 0.601562 0.402344 0.960937 0.328125 c 0.355469 -0.074219 0.644532 -0.335938 0.753906 -0.683594 c 0.105469 -0.347656 0.015626 -0.726562 -0.238281 -0.988281 l -0.429687 -0.476563 c 1.046875 -1.15625 1.691406 -2.679687 1.691406 -4.351562 c 0 -3.578125 -2.921875 -6.5 -6.5 -6.5 z m 0 2 c 2.496094 0 4.5 2.003906 4.5 4.5 s -2.003906 4.5 -4.5 4.5 s -4.5 -2.003906 -4.5 -4.5 s 2.003906 -4.5 4.5 -4.5 z m -0.007812 0.992188 c -0.277344 0.003906 -0.496094 0.230468 -0.492188 0.507812 v 2.5 h -1.5 c -0.179688 -0.003906 -0.347656 0.09375 -0.4375 0.246094 c -0.09375 0.15625 -0.09375 0.351562 0 0.507812 c 0.089844 0.152344 0.257812 0.25 0.4375 0.246094 h 2 c 0.277344 0 0.5 -0.222656 0.5 -0.5 v -3 c 0.003906 -0.136719 -0.050781 -0.265625 -0.144531 -0.363281 c -0.097657 -0.09375 -0.226563 -0.148438 -0.363281 -0.144531 z m 0 0"/>
        <path d="m 2.109375 1.421875 c -1.144531 0.765625 -1.457031 2.320313 -0.6875 3.46875 l 4.15625 -2.78125 c -0.765625 -1.144531 -2.320313 -1.457031 -3.46875 -0.6875 z m 0 0"/>
        <path d="m 12.890625 1.421875 c 1.144531 0.765625 1.457031 2.320313 0.6875 3.46875 l -4.15625 -2.78125 c 0.765625 -1.144531 2.320313 -1.457031 3.46875 -0.6875 z m 0 0"/>
    </g>
</svg>

<svg xmlns="http://www.w3.org/2000/svg" width="16" height="16"><path fill="#222" d="M7.5 3C3.922 3 1 5.922 1 9.5c0 1.688.656 3.223 1.719 4.383l-.418.398c-.262.25-.367.621-.281.969a1.003 1.003 0 0 0 1.68.469l.59-.578A6.438 6.438 0 0 0 7.5 16a6.407 6.407 0 0 0 3.254-.887l.508.559a.991.991 0 0 0 .96.328c.356-.074.645-.336.755-.684a1.002 1.002 0 0 0-.239-.988l-.43-.476A6.466 6.466 0 0 0 14 9.5C14 5.922 11.078 3 7.5 3zm0 2C9.996 5 12 7.004 12 9.5S9.996 14 7.5 14 3 11.996 3 9.5 5.004 5 7.5 5zm-.008.992A.499.499 0 0 0 7 6.5V9H5.5a.5.5 0 1 0 0 1h2c.277 0 .5-.223.5-.5v-3a.504.504 0 0 0-.145-.363.504.504 0 0 0-.363-.145zM2.11 1.422a2.501 2.501 0 0 0-.688 3.469l4.156-2.782a2.501 2.501 0 0 0-3.469-.687zm10.78 0a2.501 2.501 0 0 1 .688 3.469L9.422 2.109a2.501 2.501 0 0 1 3.469-.687zm0 0"/></svg>
